Icons/com_microsoft_skydrive.svg

<svg viewBox="0 0 48 48" xmlns:xlink="http://www.w3.org/1999/xlink">
 <defs>
  <linearGradient id="0">
   <stop stop-opacity="0"/>
   <stop offset="1"/>
  </linearGradient>
  <linearGradient xlink:href="#0" id="1" gradientUnits="userSpaceOnUse" gradientTransform="translate(4e-7,-48)" y1="47" x2="0" y2="1"/>
  <clipPath id="2">
   <g transform="translate(0,-1004.3622)">
    <rect rx="4" y="1005.36" x="1" height="46" width="46" fill="#1890d0"/>
   </g>
  </clipPath>
  <clipPath id="3">
   <g transform="translate(0,-1004.3622)">
    <rect rx="4" y="1005.36" x="1" height="46" width="46" fill="#1890d0"/>
   </g>
  </clipPath>
 </defs>
 <g>
  <g transform="translate(0,-1004.3622)">
   <path d="m 5,1006.3622 c -2.216,0 -4,1.784 -4,4 l 0,37.25 c 0,2.216 1.784,4 4,4 l 38,0 c 2.216,0 4,-1.784 4,-4 l 0,-37.25 c 0,-2.216 -1.784,-4 -4,-4 l -38,0 z m -4,41.5 0,0.5 c 0,2.216 1.784,4 4,4 l 38,0 c 2.216,0 4,-1.784 4,-4 l 0,-0.5 c 0,2.216 -1.784,4 -4,4 l -38,0 c -2.216,0 -4,-1.784 -4,-4 z" opacity="0.02"/>
   <path d="m 1,1047.6122 0,0.25 c 0,2.216 1.784,4 4,4 l 38,0 c 2.216,0 4,-1.784 4,-4 l 0,-0.25 c 0,2.216 -1.784,4 -4,4 l -38,0 c -2.216,0 -4,-1.784 -4,-4 z" opacity="0.05"/>
   <rect width="46" height="46" x="1" y="1005.61" rx="4" opacity="0.1"/>
  </g>
 </g>
 <g>
  <g transform="translate(0,-1004.3622)">
   <rect rx="4" y="1005.36" x="1" height="46" width="46" fill="#1158c7"/>
  </g>
 </g>
 <g>
  <rect transform="scale(1,-1)" width="46" height="46" x="1" y="-46.998" rx="4" opacity="0.1" fill="url(#1)"/>
 </g>
 <g>
  <g clip-path="url(#2)">
   <g opacity="0.1">
    <g>
     <path d="M 19.429688 29.902344 C 17.855469 29.492188 16.980469 28.191406 16.976562 26.261719 C 16.976562 25.644531 17.019531 25.347656 17.167969 24.953125 C 17.53125 23.980469 18.492188 23.246094 19.753906 22.976562 C 20.382812 22.839844 20.578125 22.695312 20.578125 22.363281 C 20.578125 22.257812 20.652344 21.945312 20.746094 21.667969 C 21.160156 20.410156 21.929688 19.363281 22.753906 18.933594 C 23.613281 18.484375 24.050781 18.382812 25.089844 18.390625 C 26.570312 18.398438 27.308594 18.730469 28.339844 19.859375 L 28.910156 20.480469 L 29.417969 20.296875 C 31.878906 19.410156 34.332031 20.917969 34.53125 23.441406 L 34.585938 24.128906 L 35.070312 24.308594 C 36.453125 24.824219 37.105469 25.910156 36.988281 27.5 C 36.910156 28.542969 36.441406 29.375 35.699219 29.789062 L 35.351562 29.980469 L 27.601562 29.996094 C 21.648438 30.007812 19.757812 29.988281 19.429688 29.902344 Z M 19.429688 29.902344 "/>
     <path d="M 13.621094 28.789062 C 12.703125 28.5625 11.730469 27.71875 11.273438 26.753906 C 11.015625 26.207031 11 26.125 11 25.15625 C 11 24.234375 11.023438 24.085938 11.226562 23.628906 C 11.664062 22.664062 12.496094 21.96875 13.539062 21.695312 C 13.761719 21.636719 13.96875 21.546875 14 21.492188 C 14.03125 21.4375 14.070312 21.136719 14.082031 20.824219 C 14.152344 18.898438 15.371094 17.195312 17.070312 16.652344 C 17.988281 16.355469 19.140625 16.429688 20.140625 16.84375 C 20.457031 16.976562 20.417969 17.003906 21.089844 16.089844 C 21.484375 15.550781 22.285156 14.878906 22.941406 14.539062 C 23.648438 14.167969 24.382812 13.996094 25.261719 14 C 27.71875 14.007812 29.835938 15.605469 30.617188 18.042969 C 30.871094 18.824219 30.855469 19.042969 30.5625 19.050781 C 30.433594 19.050781 30.0625 19.125 29.742188 19.210938 L 29.15625 19.371094 L 28.621094 18.816406 C 27.113281 17.246094 24.65625 16.910156 22.5625 17.980469 C 21.726562 18.410156 21.054688 19.023438 20.550781 19.824219 C 20.1875 20.398438 19.726562 21.460938 19.726562 21.726562 C 19.726562 21.914062 19.582031 22.007812 18.957031 22.222656 C 17.023438 22.878906 15.898438 24.402344 15.898438 26.351562 C 15.898438 27.058594 16.074219 27.925781 16.316406 28.421875 C 16.410156 28.609375 16.460938 28.789062 16.429688 28.820312 C 16.355469 28.898438 13.953125 28.871094 13.621094 28.789062 Z M 13.621094 28.789062 "/>
    </g>
   </g>
  </g>
 </g>
 <g>
  <g clip-path="url(#3)">
   <g transform="translate(0,-1)">
    <g>
     <path d="M 19.429688 29.902344 C 17.855469 29.492188 16.980469 28.191406 16.976562 26.261719 C 16.976562 25.644531 17.019531 25.347656 17.167969 24.953125 C 17.53125 23.980469 18.492188 23.246094 19.753906 22.976562 C 20.382812 22.839844 20.578125 22.695312 20.578125 22.363281 C 20.578125 22.257812 20.652344 21.945312 20.746094 21.667969 C 21.160156 20.410156 21.929688 19.363281 22.753906 18.933594 C 23.613281 18.484375 24.050781 18.382812 25.089844 18.390625 C 26.570312 18.398438 27.308594 18.730469 28.339844 19.859375 L 28.910156 20.480469 L 29.417969 20.296875 C 31.878906 19.410156 34.332031 20.917969 34.53125 23.441406 L 34.585938 24.128906 L 35.070312 24.308594 C 36.453125 24.824219 37.105469 25.910156 36.988281 27.5 C 36.910156 28.542969 36.441406 29.375 35.699219 29.789062 L 35.351562 29.980469 L 27.601562 29.996094 C 21.648438 30.007812 19.757812 29.988281 19.429688 29.902344 Z M 19.429688 29.902344 " fill="#f9f9f9"/>
     <path d="M 13.621094 28.789062 C 12.703125 28.5625 11.730469 27.71875 11.273438 26.753906 C 11.015625 26.207031 11 26.125 11 25.15625 C 11 24.234375 11.023438 24.085938 11.226562 23.628906 C 11.664062 22.664062 12.496094 21.96875 13.539062 21.695312 C 13.761719 21.636719 13.96875 21.546875 14 21.492188 C 14.03125 21.4375 14.070312 21.136719 14.082031 20.824219 C 14.152344 18.898438 15.371094 17.195312 17.070312 16.652344 C 17.988281 16.355469 19.140625 16.429688 20.140625 16.84375 C 20.457031 16.976562 20.417969 17.003906 21.089844 16.089844 C 21.484375 15.550781 22.285156 14.878906 22.941406 14.539062 C 23.648438 14.167969 24.382812 13.996094 25.261719 14 C 27.71875 14.007812 29.835938 15.605469 30.617188 18.042969 C 30.871094 18.824219 30.855469 19.042969 30.5625 19.050781 C 30.433594 19.050781 30.0625 19.125 29.742188 19.210938 L 29.15625 19.371094 L 28.621094 18.816406 C 27.113281 17.246094 24.65625 16.910156 22.5625 17.980469 C 21.726562 18.410156 21.054688 19.023438 20.550781 19.824219 C 20.1875 20.398438 19.726562 21.460938 19.726562 21.726562 C 19.726562 21.914062 19.582031 22.007812 18.957031 22.222656 C 17.023438 22.878906 15.898438 24.402344 15.898438 26.351562 C 15.898438 27.058594 16.074219 27.925781 16.316406 28.421875 C 16.410156 28.609375 16.460938 28.789062 16.429688 28.820312 C 16.355469 28.898438 13.953125 28.871094 13.621094 28.789062 Z M 13.621094 28.789062 " fill="#f9f9f9"/>
    </g>
   </g>
  </g>
 </g>
 <g>
  <g transform="translate(0,-1004.3622)">
   <path d="m 1,1043.3622 0,4 c 0,2.216 1.784,4 4,4 l 38,0 c 2.216,0 4,-1.784 4,-4 l 0,-4 c 0,2.216 -1.784,4 -4,4 l -38,0 c -2.216,0 -4,-1.784 -4,-4 z" opacity="0.1"/>
  </g>
 </g>
</svg>

<svg viewBox="0 0 48 48"><defs><linearGradient id="linearGradient3764" x1="1" x2="47" gradientUnits="userSpaceOnUse" gradientTransform="translate(-48.000001,0.00221467)"><stop stop-color="#0f51b5" stop-opacity="1"/><stop offset="1" stop-color="#1158c7" stop-opacity="1"/></linearGradient><clipPath id="clipPath-599096306"><g transform="translate(0,-1004.3622)"><rect rx="4" y="1005.36" x="1" height="46" width="46" fill="#1890d0"/></g></clipPath><clipPath id="clipPath-625813425"><g transform="translate(0,-1004.3622)"><rect rx="4" y="1005.36" x="1" height="46" width="46" fill="#1890d0"/></g></clipPath></defs><g><path d="m 1 43 l 0 0.25 c 0 2.216 1.784 4 4 4 l 38 0 c 2.216 0 4 -1.784 4 -4 l 0 -0.25 c 0 2.216 -1.784 4 -4 4 l -38 0 c -2.216 0 -4 -1.784 -4 -4 z m 0 0.5 l 0 0.5 c 0 2.216 1.784 4 4 4 l 38 0 c 2.216 0 4 -1.784 4 -4 l 0 -0.5 c 0 2.216 -1.784 4 -4 4 l -38 0 c -2.216 0 -4 -1.784 -4 -4 z" opacity="0.02"/><path d="m 1 43.25 l 0 0.25 c 0 2.216 1.784 4 4 4 l 38 0 c 2.216 0 4 -1.784 4 -4 l 0 -0.25 c 0 2.216 -1.784 4 -4 4 l -38 0 c -2.216 0 -4 -1.784 -4 -4 z" opacity="0.05"/><path d="m 1 43 l 0 0.25 c 0 2.216 1.784 4 4 4 l 38 0 c 2.216 0 4 -1.784 4 -4 l 0 -0.25 c 0 2.216 -1.784 4 -4 4 l -38 0 c -2.216 0 -4 -1.784 -4 -4 z" opacity="0.1"/></g><g><rect width="46" height="46" x="-47" y="1" rx="4" transform="matrix(0,-1,1,0,0,0)" fill="url(#linearGradient3764)" fill-opacity="1"/></g><g><g clip-path="url(#clipPath-599096306)"><g opacity="0.1"><!-- color: #1158c7 --><g><path d="m 19.43 29.902 c -1.574 -0.41 -2.449 -1.711 -2.453 -3.641 c 0 -0.617 0.043 -0.914 0.191 -1.309 c 0.363 -0.973 1.324 -1.707 2.586 -1.977 c 0.629 -0.137 0.824 -0.281 0.824 -0.613 c 0 -0.105 0.074 -0.418 0.168 -0.695 c 0.414 -1.258 1.184 -2.305 2.01 -2.734 c 0.859 -0.449 1.297 -0.551 2.336 -0.543 c 1.48 0.008 2.219 0.34 3.25 1.469 l 0.57 0.621 l 0.508 -0.184 c 2.461 -0.887 4.914 0.621 5.113 3.145 l 0.055 0.688 l 0.484 0.18 c 1.383 0.516 2.035 1.602 1.918 3.191 c -0.078 1.043 -0.547 1.875 -1.289 2.289 l -0.348 0.191 l -7.75 0.016 c -5.953 0.012 -7.844 -0.008 -8.172 -0.094 m 0 0" fill="#000"/><path d="m 13.621 28.789 c -0.918 -0.227 -1.891 -1.07 -2.348 -2.035 c -0.258 -0.547 -0.273 -0.629 -0.273 -1.598 c 0 -0.922 0.023 -1.07 0.227 -1.527 c 0.438 -0.965 1.27 -1.66 2.313 -1.934 c 0.223 -0.059 0.43 -0.148 0.461 -0.203 c 0.031 -0.055 0.07 -0.355 0.082 -0.668 c 0.07 -1.926 1.289 -3.629 2.988 -4.172 c 0.918 -0.297 2.07 -0.223 3.07 0.191 c 0.316 0.133 0.277 0.16 0.949 -0.754 c 0.395 -0.539 1.195 -1.211 1.852 -1.551 c 0.707 -0.371 1.441 -0.543 2.32 -0.539 c 2.457 0.008 4.574 1.605 5.355 4.04 c 0.254 0.781 0.238 1 -0.055 1.01 c -0.129 0 -0.5 0.074 -0.82 0.16 l -0.586 0.16 l -0.535 -0.555 c -1.508 -1.57 -3.965 -1.906 -6.06 -0.836 c -0.836 0.43 -1.508 1.043 -2.01 1.844 c -0.363 0.574 -0.824 1.637 -0.824 1.902 c 0 0.188 -0.145 0.281 -0.77 0.496 c -1.934 0.656 -3.059 2.18 -3.059 4.129 c 0 0.707 0.176 1.574 0.418 2.07 c 0.094 0.188 0.145 0.367 0.113 0.398 c -0.074 0.078 -2.477 0.051 -2.809 -0.031 m 0 0" fill="#000"/></g></g></g></g><g><g clip-path="url(#clipPath-625813425)"><g transform="translate(0,-1)"><!-- color: #1158c7 --><g><path d="m 19.43 29.902 c -1.574 -0.41 -2.449 -1.711 -2.453 -3.641 c 0 -0.617 0.043 -0.914 0.191 -1.309 c 0.363 -0.973 1.324 -1.707 2.586 -1.977 c 0.629 -0.137 0.824 -0.281 0.824 -0.613 c 0 -0.105 0.074 -0.418 0.168 -0.695 c 0.414 -1.258 1.184 -2.305 2.01 -2.734 c 0.859 -0.449 1.297 -0.551 2.336 -0.543 c 1.48 0.008 2.219 0.34 3.25 1.469 l 0.57 0.621 l 0.508 -0.184 c 2.461 -0.887 4.914 0.621 5.113 3.145 l 0.055 0.688 l 0.484 0.18 c 1.383 0.516 2.035 1.602 1.918 3.191 c -0.078 1.043 -0.547 1.875 -1.289 2.289 l -0.348 0.191 l -7.75 0.016 c -5.953 0.012 -7.844 -0.008 -8.172 -0.094 m 0 0" fill="#f9f9f9"/><path d="m 13.621 28.789 c -0.918 -0.227 -1.891 -1.07 -2.348 -2.035 c -0.258 -0.547 -0.273 -0.629 -0.273 -1.598 c 0 -0.922 0.023 -1.07 0.227 -1.527 c 0.438 -0.965 1.27 -1.66 2.313 -1.934 c 0.223 -0.059 0.43 -0.148 0.461 -0.203 c 0.031 -0.055 0.07 -0.355 0.082 -0.668 c 0.07 -1.926 1.289 -3.629 2.988 -4.172 c 0.918 -0.297 2.07 -0.223 3.07 0.191 c 0.316 0.133 0.277 0.16 0.949 -0.754 c 0.395 -0.539 1.195 -1.211 1.852 -1.551 c 0.707 -0.371 1.441 -0.543 2.32 -0.539 c 2.457 0.008 4.574 1.605 5.355 4.04 c 0.254 0.781 0.238 1 -0.055 1.01 c -0.129 0 -0.5 0.074 -0.82 0.16 l -0.586 0.16 l -0.535 -0.555 c -1.508 -1.57 -3.965 -1.906 -6.06 -0.836 c -0.836 0.43 -1.508 1.043 -2.01 1.844 c -0.363 0.574 -0.824 1.637 -0.824 1.902 c 0 0.188 -0.145 0.281 -0.77 0.496 c -1.934 0.656 -3.059 2.18 -3.059 4.129 c 0 0.707 0.176 1.574 0.418 2.07 c 0.094 0.188 0.145 0.367 0.113 0.398 c -0.074 0.078 -2.477 0.051 -2.809 -0.031 m 0 0" fill="#f9f9f9"/></g></g></g></g><g><g transform="translate(0,-1004.3622)"><path d="m 1 1043.36 0 4 c 0 2.216 1.784 4 4 4 l 38 0 c 2.216 0 4 -1.784 4 -4 l 0 -4 c 0 2.216 -1.784 4 -4 4 l -38 0 c -2.216 0 -4 -1.784 -4 -4 z" opacity="0.1"/></g></g></svg>
